X:452
T:Lasses' Fashion, The
R:Reel
B:The Athole Collection
M:C|
L:1/8
K:A
c|AF F/F/F AEEc|AF F/F/F c2Bc|AF F/F/F AEEA|1 FGAB c2Bc:|2
FGAB c2 Bf||eAfA cBBf|eAfe c2ca|eAfA cABc|AFAB c2 cf|
eAfA cBBf|eAfe c2cb|agfa eacA|FGAB cABc||

